packages/kaspersky-hexa-ui-icons/src/iconsSVGs/24/Advertisement.svg

<svg width="24" height="24" viewBox="0 0 24 24" fill="none" xmlns="http://www.w3.org/2000/svg">
<path fill-rule="evenodd" clip-rule="evenodd" d="M20 8.00009V4.0964C20 2.39559 18.1525 1.33805 16.6859 2.19934L11.9169 5.00005H5.8C4.2536 5.00005 3 6.25365 3 7.80005V12.2C3 13.7464 4.2536 15 5.8 15H7.5V20.5C7.5 21.3285 8.17157 22 9 22C9.82843 22 10.5 21.3285 10.5 20.5V15H11.5597L16.7294 17.8799C18.1958 18.6967 20 17.6365 20 15.958V11.9722C21.0905 11.9647 21.9722 11.0784 21.9722 9.98615C21.9722 8.89389 21.0905 8.00756 20 8.00009ZM17.6987 3.92394C17.832 3.84564 18 3.94178 18 4.0964V15.958C18 16.1105 17.836 16.2069 17.7027 16.1327L13 13.513V6.68336L17.6987 3.92394ZM10.6592 7.00005H5.8C5.35817 7.00005 5 7.35822 5 7.80005V12.2C5 12.6419 5.35817 13 5.8 13H10.6592V7.00005Z" fill="black"/>
</svg>

<svg xmlns="http://www.w3.org/2000/svg" width="24" height="24" fill="none" viewBox="0 0 24 24"><path fill="#000" fill-rule="evenodd" d="M20 8V4.0965c0-1.7008-1.8475-2.7583-3.3141-1.897L11.9169 5H5.8C4.2536 5 3 6.2537 3 7.8v4.4C3 13.7464 4.2536 15 5.8 15h1.7v5.5c0 .8285.6716 1.5 1.5 1.5s1.5-.6715 1.5-1.5V15h1.0597l5.1697 2.8799C18.1958 18.6967 20 17.6365 20 15.958v-3.9858c1.0905-.0075 1.9722-.8938 1.9722-1.986S21.0905 8.0076 20 8m-2.3013-4.076c.1333-.0784.3013.0178.3013.1724V15.958c0 .1525-.164.2489-.2973.1747L13 13.513V6.6834zM10.6592 7H5.8a.8.8 0 0 0-.8.8v4.4a.8.8 0 0 0 .8.8h4.8592z"/></svg>
